tools/download-figma-icons/icons/solid/hot-water-bottle.svg

<svg width="24" height="24" viewBox="0 0 24 24" fill="none" xmlns="http://www.w3.org/2000/svg">
<path d="M18.0075 7.4325L15.0975 5.4975L15.6975 3.675C15.8025 3.345 15.75 2.9775 15.54 2.7C15.345 2.415 15.015 2.25 14.67 2.25H14.25C14.25 1.0125 13.2375 0 12 0C10.7625 0 9.75 1.0125 9.75 2.25H9.33C8.985 2.25 8.655 2.415 8.4525 2.7C8.25 2.9775 8.1975 3.345 8.3025 3.675L8.9025 5.4975L5.955 7.4625C5.0325 8.1675 4.5 9.2175 4.5 10.35V21.4125C4.5 22.8375 5.7 24 7.1775 24H16.8225C18.3 24 19.5 22.8375 19.5 21.4125V10.35C19.5 9.2175 18.9675 8.1675 18.0075 7.4325ZM12 1.5C12.4125 1.5 12.75 1.8375 12.75 2.25H11.25C11.25 1.8375 11.5875 1.5 12 1.5Z" fill="black"/>
</svg>

<svg xmlns="http://www.w3.org/2000/svg" width="24" height="24" fill="none" viewBox="0 0 24 24"><path fill="currentColor" d="m18.008 7.433-2.91-1.936.6-1.822c.104-.33.052-.697-.158-.975a1.05 1.05 0 0 0-.87-.45h-.42A2.257 2.257 0 0 0 12 0a2.257 2.257 0 0 0-2.25 2.25h-.42c-.345 0-.675.165-.877.45a1.1 1.1 0 0 0-.15.975l.6 1.822-2.948 1.966C5.032 8.168 4.5 9.217 4.5 10.35v11.063C4.5 22.837 5.7 24 7.178 24h9.645c1.477 0 2.677-1.163 2.677-2.587V10.35c0-1.133-.532-2.182-1.492-2.917M12 1.5c.412 0 .75.337.75.75h-1.5c0-.413.338-.75.75-.75"/></svg>
